icons/zapier.svg

<?xml version="1.0" encoding="UTF-8"?>
<svg width="256px" height="256px" viewBox="0 0 256 256" version="1.1" xmlns="http://www.w3.org/2000/svg" xmlns:xlink="http://www.w3.org/1999/xlink">
    <g>
        <path d="M128.080089,-0.000183105 C135.311053,0.0131003068 142.422517,0.624138494 149.335663,1.77979593 L149.335663,1.77979593 L149.335663,76.2997796 L202.166953,23.6044907 C208.002065,27.7488446 213.460883,32.3582023 218.507811,37.3926715 C223.557281,42.4271407 228.192318,47.8867213 232.346817,53.7047992 L232.346817,53.7047992 L179.512985,106.400063 L254.227854,106.400063 C255.387249,113.29414 256,120.36111 256,127.587243 L256,127.587243 L256,127.759881 C256,134.986013 255.387249,142.066204 254.227854,148.960282 L254.227854,148.960282 L179.500273,148.960282 L232.346817,201.642324 C228.192318,207.460402 223.557281,212.919983 218.523066,217.954452 L218.523066,217.954452 L218.507811,217.954452 C213.460883,222.988921 208.002065,227.6115 202.182208,231.742607 L202.182208,231.742607 L149.335663,179.04709 L149.335663,253.5672 C142.435229,254.723036 135.323765,255.333244 128.092802,255.348499 L128.092802,255.348499 L127.907197,255.348499 C120.673691,255.333244 113.590195,254.723036 106.677048,253.5672 L106.677048,253.5672 L106.677048,179.04709 L53.8457596,231.742607 C42.1780766,223.466917 31.977435,213.278734 23.6658953,201.642324 L23.6658953,201.642324 L76.4997269,148.960282 L1.78485803,148.960282 C0.612750404,142.052729 0,134.946095 0,127.719963 L0,127.719963 L0,127.349037 C0.0121454869,125.473817 0.134939797,123.182933 0.311311815,120.812834 L0.36577283,120.099764 C0.887996182,113.428547 1.78485803,106.400063 1.78485803,106.400063 L1.78485803,106.400063 L76.4997269,106.400063 L23.6658953,53.7047992 C27.8076812,47.8867213 32.4300059,42.4403618 37.4769335,37.4193681 L37.4769335,37.4193681 L37.5023588,37.3926715 C42.5391163,32.3582023 48.0106469,27.7488446 53.8457596,23.6044907 L53.8457596,23.6044907 L106.677048,76.2997796 L106.677048,1.77979593 C113.590195,0.624138494 120.688946,0.0131003068 127.932622,-0.000183105 L127.932622,-0.000183105 L128.080089,-0.000183105 Z M128.067377,95.7600714 L127.945335,95.7600714 C118.436262,95.7600714 109.32891,97.5001809 100.910584,100.661566 C97.7553011,109.043534 96.0085811,118.129275 95.9958684,127.613685 L95.9958684,127.733184 C96.0085811,137.217594 97.7553011,146.303589 100.923296,154.685303 C109.32891,157.846943 118.436262,159.587052 127.945335,159.587052 L128.067377,159.587052 C137.576449,159.587052 146.683802,157.846943 155.089415,154.685303 C158.257411,146.290368 160.004131,137.217594 160.004131,127.733184 L160.004131,127.613685 C160.004131,118.129275 158.257411,109.043534 155.089415,100.661566 C146.683802,97.5001809 137.576449,95.7600714 128.067377,95.7600714 Z" fill="#FF4A00" fill-rule="nonzero"></path>
    </g>
</svg>

<svg xmlns="http://www.w3.org/2000/svg" viewBox="0 0 256 255.349">
  <path fill="#ff4a00" d="M128.08 0c7.231.013 14.343.624 21.256 1.78V76.3l52.831-52.695a128.425 128.425 0 0 1 16.34 13.788 128.468 128.468 0 0 1 13.84 16.312L179.513 106.4h74.715A127.579 127.579 0 0 1 256 127.587v.173c0 7.226-.613 14.306-1.772 21.2H179.5l52.847 52.683a129.615 129.615 0 0 1-13.824 16.312h-.015a128.255 128.255 0 0 1-16.326 13.788l-52.846-52.696v74.52a130.321 130.321 0 0 1-21.243 1.782h-.186a130.265 130.265 0 0 1-21.23-1.782v-74.52l-52.831 52.696a128.401 128.401 0 0 1-30.18-30.1L76.5 148.96H1.785A126.984 126.984 0 0 1 0 127.72v-.37c.012-1.876.135-4.167.311-6.537l.055-.713c.522-6.671 1.419-13.7 1.419-13.7H76.5L23.666 53.705a126.265 126.265 0 0 1 13.81-16.285l.026-.027a127.746 127.746 0 0 1 16.344-13.788L106.677 76.3V1.78A130.278 130.278 0 0 1 127.933 0zm-.013 95.76h-.122c-9.509 0-18.616 1.74-27.034 4.902a76.662 76.662 0 0 0-4.915 26.952v.12a76.383 76.383 0 0 0 4.927 26.951 76.608 76.608 0 0 0 27.022 4.902h.122c9.51 0 18.617-1.74 27.022-4.902a76.146 76.146 0 0 0 4.915-26.952v-.12c0-9.484-1.747-18.57-4.915-26.951a76.614 76.614 0 0 0-27.022-4.902z"/>
</svg>
